calendar-end.svg

<svg  viewBox="0 0 24 24" fill="currentColor"><path  d="M22 14V22H20V18L16 22V19H11V17H16V14L20 18V14H22M5 19L9 19V21L5 21C3.9 21 3 20.1 3 19V5C3 3.89 3.9 3 5 3H6V.998H8V3H16V.998H18V3H19C20.11 3 21 3.89 21 5L21 12H19V8H5V19Z"/></svg>

<svg fill="currentColor" viewBox="0 0 24 24"><path d="M22 14v8h-2v-4l-4 4v-3h-5v-2h5v-3l4 4v-4zM5 19h4v2H5c-1.1 0-2-.9-2-2V5a2 2 0 0 1 2-2h1V.998h2V3h8V.998h2V3h1c1.11 0 2 .89 2 2v7h-2V8H5z"/></svg>
